!!!COM: Ernest Reyer
!!!CNT: Francais
!!!TXO: Francais
!!!OTL: Sous les Tilleuls
!!!LYR: Pierre Dupont
!!!ENC: Jacob Pegg
!!!YOR: Romantic French Song 1830-1870 -David Tunley, ed.,
!!!YOR: New York: Garland Publishing, Inc., 1995,
!!!YOR: Vol. 1 - 'Early Romances'
!!!ODT: 1858/
!!NB: Vocal melody and text only encoded.
!!NB: First instance of melodic material only encoded.
**kern	**silbe
*clef G2	*
*k[b-]	*
*M6/8	*
=1	=1
4r	.
8r	.
{8g	{Vous
b-q	|
8a	sou-
8g	-vient~
=2	=2
4f	~il
8a	de
4cc	cet- 
8cc	-te al-
=3	=3
[2.ff	-le/-
=4	=4
(4ff]	|
8ee	|
eeq	|
8dd	|
8cc	|
8dd)	|
=5	=5
4.cc}	-e,}
4r	.
{8cc	{Qui
=6	=6
4dd	pro-
8cc	-je-
4g	-tait
8a	son
=7	=7
[4.cc	om-
(8cc]	|
8b-)	-bre
8g	au
=8	=8
4.cc}	loin}
4r	.
8r	.
=9	=9
4r	.
8r	.
{(8g	{Ou\
b-q	|
8a)	|
8g	la
=10	=10
8f	lune
8f	a\
8a	de-
4cc	-mi
8cc	voi-
=11	=11
[2.ff	-le/
=12	=12
(4ff]	|
8ee	|
eeq	|
8dd	|
8cc	|
8dd)	|
=13	=13
4.cc}	-e}
4r	.
{8cc	{E/-
=14	=14
[2.cc	-tait
=15	=15
8cc]	|
8cc	no-
8cc	-tre u-
8cc	-ni-
8cc	-que
8cc	te/-
=16	=16
4b-}	-moin;}
8r	.
{8dd	{Ou\
8dd	sub-
8dd	-ju-
=17	=17
4ff	-gue/
8ff	par
4ee-	vo-
8ee-	-tre
=18	=18
[2.dd	gra^-
=19	=19
(4.dd]	|
ddq	|
8cc	|
8b-	|
8cc)	|
=20	=20
4.dd}	-ce,}
4r	.
{8dd	{J'e/-
=21	=21
[2.dd	-tais
=22	=22
8dd]	|
8een	a\
8ff	ge-
8een	-noux
8dd	a\
8een	vos
=23	=23
4.cc}	pieds,}
4r	.
8r	.
=24	=24
4r	.
{8g	{Et
8g	vous
16gq	|
16b-q	|
8a	de-
8g	-man-
=25	=25
(4f	-dais
8a)	|
4cc	a\
8cc	voix
=26	=26
[2.ff	bas-
=27	=27
(4ff]	|
8ee	|
eeq	|
8dd	|
8cc	|
8dd)	|
=28	=28
4.cc}	-se}
4r	.
8r	.
=29	=29
4r	.
8r	.
{8dd	{Si
8.ee	vous
16dd	m'ai-
=30	=30
(4.dd	-miez
8dd-)}	|}
8r	.
8r	.
=31	=31
4r	.
8r;	.
{8g	{Si
b-q	vous
8.a	|
16g	m'ai-
=32	=32
4.f}	-miez.}
4r	.
8r	.
*-	*-
